X:001
T:Ah Surely! (reel) 
T:The Windy Gap
B:CRE3.129 (Cinnte le Dia)
F:file ID: cre.3/001ah_surely
L:1/8
R:reel
Q:180
M:C
K:G
A3c BGG2|AG (3Bcd g2fg|eAA2 AG (3Bcd|e2dc BGG2|
A3c BGG2|AG (3Bcd g2ga|(3bag ag egfa|gedc BGG2:|
bgg2 agef|g2ge dega|bgg2 aged|eaag a3z|
bgg2 agef|g2ge dega|(3bag ag egfa|gedc BGG2:|

%%%

